dist/svgs/carbon-icons/svg/devops.svg

<svg xmlns="http://www.w3.org/2000/svg" fill-rule="evenodd" viewBox="0 0 24 24"><path d="M21 13V3h-3v1h2v9h-3v11h7V13h-3zm2 10h-5v-9h5v9zM17 3.5L11 0v3H3v13h1V4h7v3l6-3.5zm-5-1.8l3 1.8-3 1.8V1.7zM16 20H6.4c-.3-1.4-1.6-2.5-3.2-2.5C1.4 17.5 0 19 0 20.7 0 22.5 1.5 24 3.2 24c1.7 0 3.1-1.3 3.2-3h9.5l.1-1zM3.2 23C2 23 1 22 1 20.7c0-1.2 1-2.2 2.2-2.2 1.2 0 2.2 1 2.2 2.2.1 1.3-.9 2.3-2.2 2.3z"/></svg>

<svg width="24px" height="24px" viewBox="0 0 24 24" version="1.1" xmlns="http://www.w3.org/2000/svg" xmlns:xlink="http://www.w3.org/1999/xlink" fill-rule="evenodd">
	<path d="M21,13 L21,3 L18,3 L18,4 L20,4 L20,13 L17,13 L17,24 L24,24 L24,13 L21,13 L21,13 Z M23,23 L18,23 L18,14 L23,14 L23,23 L23,23 Z" id="Shape" fill="#010101"></path>
	<path d="M17,3.5 L11,0 L11,3 L3,3 L3,16 L4,16 L4,4 L11,4 L11,7 L17,3.5 L17,3.5 Z M12,1.7 L15,3.5 L12,5.3 L12,1.7 L12,1.7 Z" id="Shape" fill="#010101"></path>
	<path d="M16,20 L6.4,20 C6.1,18.6 4.8,17.5 3.2,17.5 C1.4,17.5 0,19 0,20.7 C0,22.5 1.5,24 3.2,24 C4.9,24 6.3,22.7 6.4,21 L15.9,21 L16,20 L16,20 Z M3.2,23 C2,23 1,22 1,20.7 C1,19.5 2,18.5 3.2,18.5 C4.4,18.5 5.4,19.5 5.4,20.7 C5.5,22 4.5,23 3.2,23 L3.2,23 Z" id="Shape" fill="#010101"></path>
</svg>
